X: 44
T:Goose Feathers
M:6/8
L:1/8
Q:110
C:Traditional
S:Arr: S. Cruzen
R:Jig
K:G
d2|:gfg d^cd|B^AB GFG|DFA cBA|GBd ede|!
gfg d^cd|B^AB GFG|DFA cBA|G3 G2 z
:|!
K:D
|:{ef^g}a2 a a2 a|a^ga afd|Ace gfe|dfb a2 z|!
{ef^g}a2 a a2 a|a^ga afd|Ace
 gfe|[d3f3] [d3f3]:|
